; generated by PrusaSlicer 2.5.0+win64 on 2022-10-14 at 18:46:46 UTC

; 

; external perimeters extrusion width = 0.45mm
; perimeters extrusion width = 0.45mm
; infill extrusion width = 0.45mm
; solid infill extrusion width = 0.45mm
; top infill extrusion width = 0.40mm
; first layer extrusion width = 0.42mm

M107
;TYPE:Custom
G90 ; use absolute coordinates
M83 ; extruder relative mode
M140 S60 ; set final bed temp
M104 S150 ; set temporary nozzle temp to prevent oozing during homing
G4 S10 ; allow partial nozzle warmup
G28 ; home all axis
G1 Z50 F240
G1 X2 Y10 F3000
M104 S210 ; set final nozzle temp
M190 S60 ; wait for bed temp to stabilize
M109 S210 ; wait for nozzle temp to stabilize
G1 Z0.28 F240
G92 E0
G1 Y140 E10 F1500 ; prime the nozzle
G1 X2.3 F5000
G92 E0
G1 Y10 E10 F1200 ; prime the nozzle
G92 E0
G21 ; set units to millimeters
G90 ; use absolute coordinates
M83 ; use relative distances for extrusion
; Filament gcode
M107
;LAYER_CHANGE
;Z:0.2
;HEIGHT:0.2
;BEFORE_LAYER_CHANGE
G92 E0
;0.2


G1 E-5 F3600
G1 Z.2 F9000
;AFTER_LAYER_CHANGE
;0.2
G1 X95.261 Y95.366
G1 E5 F2400
M204 S500
;TYPE:Skirt/Brim
;WIDTH:0.42
G1 F1200
G1 X95.866 Y94.848 E.02745
G1 X96.582 Y94.441 E.02842
G1 X97.278 Y94.201 E.0254
G1 X98.3 Y94.073 E.03551
G1 X132.994 Y94.086 E1.1966
G1 X133.722 Y94.201 E.0254
G1 X134.418 Y94.441 E.0254
G1 X135.062 Y94.798 E.0254
G1 X135.677 Y95.303 E.02745
G1 X136.202 Y95.938 E.02843
G1 X136.559 Y96.582 E.0254
G1 X136.799 Y97.278 E.0254
G1 X136.914 Y98.006 E.0254
G1 X136.927 Y132.7 E1.1966
G1 X136.799 Y133.722 E.03551
G1 X136.559 Y134.418 E.0254
G1 X136.202 Y135.062 E.0254
G1 X135.739 Y135.634 E.0254
G1 X135.134 Y136.152 E.02745
G1 X134.418 Y136.559 E.02843
G1 X133.722 Y136.799 E.0254
G1 X132.7 Y136.927 E.03551
G1 X98.3 Y136.927 E1.18645
G1 X97.278 Y136.799 E.03551
G1 X96.582 Y136.559 E.0254
G1 X95.938 Y136.202 E.0254
G1 X95.366 Y135.739 E.0254
G1 X94.883 Y135.183 E.0254
G1 X94.441 Y134.418 E.03048
G1 X94.201 Y133.722 E.0254
G1 X94.073 Y132.7 E.03551
G1 X94.073 Y98.3 E1.18645
G1 X94.201 Y97.278 E.03551
G1 X94.441 Y96.582 E.0254
G1 X94.798 Y95.938 E.0254
G1 X95.223 Y95.412 E.02333
G1 E-3.5 F3600
;WIPE_START
G1 F7200
G1 X95.866 Y94.848 E-.40617
G1 X96.582 Y94.441 E-.39147
G1 X97.278 Y94.201 E-.34977
G1 X97.858 Y94.128 E-.27758
;WIPE_END
G1 E-.075 F3600
G1 X98.123 Y98.031 F9000
G1 E5 F2400
;TYPE:External perimeter
;WIDTH:0.419999
G1 F1200
G1 X98.323 Y97.96 E.0073
G1 X132.741 Y97.967 E1.18707
G1 X132.958 Y98.084 E.0085
G1 X133.04 Y98.323 E.00871
G1 X133.04 Y132.643 E1.18371
G1 X133.016 Y132.815 E.00599
G1 X132.876 Y132.969 E.00716
G1 X132.677 Y133.04 E.00729
G1 X98.357 Y133.04 E1.18371
G1 X98.193 Y133.017 E.0057
G1 X98.038 Y132.91 E.0065
G1 X97.96 Y132.677 E.00845
G1 X97.96 Y98.357 E1.18371
G1 X97.984 Y98.185 E.00599
G1 X98.083 Y98.076 E.00508
G1 X98.314 Y98.123 F9000
G1 E-3.5 F3600
;WIPE_START
G1 F7200
G1 X98.323 Y97.96 E-.12636
G1 X101.056 Y97.961 E-1.29864
;WIPE_END
G1 E-.075 F3600
G1 X128.678 Y126.982 F9000
G1 E5 F2400
G1 F1200
G1 X129.066 Y127.219 E.01567
G1 X129.349 Y127.575 E.01567
G1 X129.493 Y128.005 E.01567
G1 X129.482 Y128.459 E.01567
G1 X129.316 Y128.882 E.01567
G1 X129.015 Y129.223 E.01567
G1 X128.617 Y129.44 E.01566
G1 X128.205 Y129.51 E.01439
G1 X123.195 Y129.51 E.17281
G1 X122.722 Y129.418 E.01661
G1 X122.334 Y129.181 E.01567
G1 X122.051 Y128.825 E.01567
G1 X121.907 Y128.395 E.01567
G1 X121.918 Y127.941 E.01567
G1 X122.084 Y127.518 E.01567
G1 X122.385 Y127.177 E.01567
G1 X122.783 Y126.96 E.01566
G1 X123.195 Y126.89 E.01439
G1 X128.205 Y126.89 E.17281
G1 X128.619 Y126.971 E.01454
G1 X128.99 Y126.732 F9000
G1 X128.846 Y126.653
;TYPE:Perimeter
G1 F1200
G1 X129.204 Y126.851 E.01412
G1 X129.605 Y127.275 E.02015
G1 X129.703 Y127.446 E.00678
G1 X129.87 Y128.005 E.02014
G1 X129.862 Y128.493 E.01681
G1 X129.703 Y128.954 E.01685
G1 X129.354 Y129.423 E.02015
G1 X128.867 Y129.744 E.02014
G1 X128.205 Y129.887 E.02333
G1 X123.195 Y129.887 E.17281
G1 X122.717 Y129.811 E.01667
G1 X122.196 Y129.549 E.02012
G1 X122.046 Y129.423 E.00678
G1 X121.697 Y128.954 E.02015
G1 X121.538 Y128.493 E.01685
G1 X121.53 Y128.005 E.01681
G1 X121.697 Y127.446 E.02014
G1 X122.046 Y126.977 E.02014
G1 X122.533 Y126.656 E.02015
G1 X123.195 Y126.513 E.02333
G1 X128.205 Y126.513 E.17281
G1 X128.793 Y126.624 E.02063
G1 X128.936 Y126.286 F9000
G1 F1200
G1 X129.055 Y126.329 E.00436
G1 X129.393 Y126.524 E.01344
G1 X129.643 Y126.735 E.01129
G1 X129.894 Y127.033 E.01344
G1 X130.057 Y127.317 E.01129
G1 X130.191 Y127.683 E.01344
G1 X130.248 Y128.005 E.01129
G1 X130.233 Y128.558 E.01906
G1 X130.057 Y129.083 E.01912
G1 X129.894 Y129.367 E.01129
G1 X129.613 Y129.699 E.01499
G1 X129.055 Y130.071 E.02313
G1 X128.749 Y130.182 E.01125
G1 X128.205 Y130.264 E.01895
G1 X123.195 Y130.264 E.17281
G1 X122.651 Y130.182 E.01895
G1 X122.345 Y130.071 E.01125
G1 X121.812 Y129.726 E.02188
G1 X121.506 Y129.367 E.01628
G1 X121.343 Y129.083 E.01129
G1 X121.167 Y128.558 E.01912
G1 X121.152 Y128.005 E.01906
G1 X121.209 Y127.683 E.01129
G1 X121.343 Y127.317 E.01344
G1 X121.506 Y127.033 E.01129
G1 X121.757 Y126.735 E.01344
G1 X122.007 Y126.524 E.01129
G1 X122.345 Y126.329 E.01344
G1 X122.651 Y126.218 E.01125
G1 X123.181 Y126.136 E.01847
G1 X128.205 Y126.136 E.17329
G1 X128.749 Y126.218 E.01895
G1 X128.88 Y126.265 E.00482
G1 E-3.5 F3600
;WIPE_START
G1 F7200
G1 X129.055 Y126.329 E-.08859
G1 X129.393 Y126.524 E-.18508
G1 X129.643 Y126.735 E-.15551
G1 X129.894 Y127.033 E-.18508
G1 X130.057 Y127.317 E-.15551
G1 X130.191 Y127.683 E-.18507
G1 X130.248 Y128.005 E-.15551
G1 X130.233 Y128.558 E-.26254
G1 X130.199 Y128.662 E-.0521
;WIPE_END
G1 E-.075 F3600
G1 X111.718 Y130.829 F9000
G1 E5 F2400
;TYPE:External perimeter
G1 F1200
G1 X111.648 Y130.559 E.00963
G1 X111.623 Y129.861 E.0241
G1 X111.617 Y119.529 E.35634
G1 X111.578 Y119.425 E.00381
G1 X111.423 Y119.383 E.00555
G1 X100.745 Y119.383 E.3683
G1 X100.407 Y119.351 E.0117
G1 X100.091 Y119.263 E.01132
G1 X99.794 Y119.122 E.01132
G1 X99.527 Y118.932 E.01132
G1 X99.297 Y118.698 E.01132
G1 X99.111 Y118.427 E.01132
G1 X98.975 Y118.128 E.01132
G1 X98.893 Y117.811 E.01132
G1 X98.867 Y117.505 E.01057
G1 X98.867 Y113.495 E.13832
G1 X98.899 Y113.157 E.0117
G1 X98.987 Y112.841 E.01132
G1 X99.128 Y112.544 E.01132
G1 X99.318 Y112.277 E.01132
G1 X99.552 Y112.047 E.01132
G1 X99.823 Y111.861 E.01132
G1 X100.122 Y111.725 E.01132
G1 X100.439 Y111.643 E.01132
G1 X100.745 Y111.617 E.01057
G1 X111.468 Y111.617 E.36986
G1 X111.582 Y111.572 E.00422
G1 X111.617 Y111.431 E.005
G1 X111.617 Y100.745 E.36858
G1 X111.649 Y100.407 E.0117
G1 X111.737 Y100.091 E.01132
G1 X111.878 Y99.794 E.01132
G1 X112.068 Y99.527 E.01132
G1 X112.302 Y99.297 E.01132
G1 X112.573 Y99.111 E.01132
G1 X112.872 Y98.975 E.01132
G1 X113.189 Y98.893 E.01132
G1 X113.495 Y98.867 E.01057
G1 X117.505 Y98.867 E.13833
G1 X117.843 Y98.899 E.0117
G1 X118.159 Y98.987 E.01132
G1 X118.456 Y99.128 E.01132
G1 X118.723 Y99.318 E.01132
G1 X118.953 Y99.552 E.01132
G1 X119.139 Y99.823 E.01132
G1 X119.275 Y100.122 E.01132
G1 X119.357 Y100.439 E.01132
G1 X119.383 Y101.135 E.024
G1 X119.383 Y111.468 E.3564
G1 X119.428 Y111.582 E.00422
G1 X119.569 Y111.617 E.005
G1 X130.255 Y111.617 E.36858
G1 X130.593 Y111.649 E.0117
G1 X130.909 Y111.737 E.01132
G1 X131.206 Y111.878 E.01132
G1 X131.473 Y112.068 E.01132
G1 X131.703 Y112.302 E.01132
G1 X131.889 Y112.573 E.01132
G1 X132.025 Y112.872 E.01132
G1 X132.107 Y113.189 E.01132
G1 X132.133 Y113.495 E.01057
G1 X132.133 Y117.505 E.13832
G1 X132.101 Y117.843 E.0117
G1 X132.013 Y118.159 E.01132
G1 X131.872 Y118.456 E.01132
G1 X131.682 Y118.723 E.01132
G1 X131.448 Y118.953 E.01132
G1 X131.177 Y119.139 E.01132
G1 X130.878 Y119.275 E.01132
G1 X130.561 Y119.357 E.01132
G1 X130.255 Y119.383 E.01057
G1 X119.529 Y119.383 E.36995
G1 X119.425 Y119.422 E.00381
G1 X119.383 Y119.577 E.00555
G1 X119.383 Y130.255 E.3683
G1 X119.351 Y130.593 E.0117
G1 X119.263 Y130.909 E.01132
G1 X119.122 Y131.206 E.01132
G1 X118.932 Y131.473 E.01132
G1 X118.698 Y131.703 E.01132
G1 X118.427 Y131.889 E.01132
G1 X118.128 Y132.025 E.01132
G1 X117.811 Y132.107 E.01132
G1 X117.505 Y132.133 E.01059
G1 X113.494 Y132.127 E.13832
G1 X113.159 Y132.096 E.01162
G1 X112.842 Y132.009 E.01132
G1 X112.547 Y131.868 E.01129
G1 X112.281 Y131.678 E.01129
G1 X112.051 Y131.444 E.01129
G1 X111.866 Y131.175 E.01129
G1 X111.735 Y130.887 E.01091
G1 X111.444 Y130.777 F9000
G1 E-3.5 F3600
;WIPE_START
G1 F7200
G1 X111.648 Y130.559 E-.16099
G1 X111.623 Y129.861 E-.33194
G1 X111.622 Y127.898 E-.93207
;WIPE_END
G1 E-.075 F3600
G1 X132.573 Y113.149 F9000
G1 E5 F2400
;TYPE:Perimeter
;WIDTH:0.600768
G1 F1200
G1 X132.586 Y113.495 E.01768
;WIDTH:0.572986
G1 X132.586 Y117.505 E.19444
;WIDTH:0.608192
G1 X132.569 Y117.908 E.02086
G1 E-3.5 F3600
;WIPE_START
G1 F7200
G1 X132.586 Y117.505 E-.1916
G1 X132.586 Y114.909 E-1.23339
;WIPE_END
G1 E-.075 F3600
G1 X119.76 Y111.24 F9000
G1 E5 F2400
;WIDTH:0.419999
G1 F1200
G1 X119.76 Y101.135 E.34853
G1 X119.732 Y100.406 E.02514
G1 X119.639 Y100.024 E.01358
G1 X119.48 Y99.664 E.01358
G1 X119.262 Y99.336 E.01358
G1 X118.989 Y99.052 E.01358
G1 X118.672 Y98.819 E.01358
G1 X118.319 Y98.645 E.01358
;WIDTH:0.464207
G1 X118.202 Y98.591 E.00496
;WIDTH:0.508414
G1 X118.085 Y98.537 E.00548
;WIDTH:0.552621
G1 X117.968 Y98.483 E.006
;WIDTH:0.596828
G1 X117.851 Y98.429 E.00652
G1 X117.954 Y98.407 E.00532
;WIDTH:0.552621
G1 X118.056 Y98.385 E.00489
;WIDTH:0.508414
G1 X118.159 Y98.363 E.00447
;WIDTH:0.464207
G1 X118.262 Y98.341 E.00404
;WIDTH:0.419999
G1 X132.663 Y98.355 E.4967
G1 X132.663 Y112.613 E.49175
;WIDTH:0.465192
G1 X132.64 Y112.747 E.00524
;WIDTH:0.510384
G1 X132.618 Y112.881 E.0058
;WIDTH:0.555576
G1 X132.595 Y113.015 E.00637
;WIDTH:0.600768
G1 X132.573 Y113.149 E.00693
G1 X132.55 Y113.096 E.00294
;WIDTH:0.574632
G1 X132.527 Y113.043 E.0028
;WIDTH:0.548496
G1 X132.428 Y112.833 E.01072
;WIDTH:0.505664
G1 X132.329 Y112.623 E.00982
;WIDTH:0.462832
G1 X132.23 Y112.414 E.00891
;WIDTH:0.419999
G1 X132.012 Y112.086 E.01358
G1 X131.739 Y111.802 E.01358
G1 X131.422 Y111.569 E.01358
G1 X131.069 Y111.395 E.01358
G1 X130.691 Y111.285 E.01358
G1 X130.255 Y111.24 E.0151
G1 X119.82 Y111.24 E.35991
G1 X120.137 Y110.863 F9000
G1 F1200
G1 X120.137 Y101.135 E.33552
G1 X120.108 Y100.374 E.02627
G1 X120.003 Y99.926 E.01584
G1 X119.822 Y99.504 E.01584
G1 X119.57 Y99.12 E.01584
G1 X119.176 Y98.718 E.01941
G1 X132.286 Y98.721 E.45214
G1 X132.286 Y111.829 E.45208
G1 X132.006 Y111.535 E.01399
G1 X131.638 Y111.26 E.01584
G1 X131.228 Y111.053 E.01584
G1 X130.788 Y110.92 E.01584
G1 X130.255 Y110.863 E.01849
G1 X120.197 Y110.863 E.34691
G1 E-3.5 F3600
;WIPE_START
G1 F7200
G1 X120.179 Y107.863 E-1.425
;WIPE_END
G1 E-.075 F3600
G1 X129.015 Y103.823 F9000
G1 E5 F2400
;TYPE:External perimeter
G1 F1200
G1 X128.617 Y104.04 E.01566
G1 X128.205 Y104.11 E.01439
G1 X123.192 Y104.11 E.17291
G1 X122.722 Y104.018 E.01652
G1 X122.334 Y103.781 E.01567
G1 X122.051 Y103.425 E.01567
G1 X121.907 Y102.995 E.01567
G1 X121.918 Y102.541 E.01567
G1 X122.084 Y102.118 E.01567
G1 X122.385 Y101.777 E.01567
G1 X122.783 Y101.56 E.01566
G1 X123.195 Y101.49 E.01439
G1 X128.205 Y101.49 E.17282
G1 X128.678 Y101.582 E.01661
G1 X129.066 Y101.819 E.01567
G1 X129.349 Y102.175 E.01567
G1 X129.493 Y102.605 E.01567
G1 X129.482 Y103.059 E.01567
G1 X129.316 Y103.482 E.01567
G1 X129.055 Y103.778 E.0136
G1 X129.075 Y104.218 F9000
G1 X129.269 Y104.08
;TYPE:Perimeter
G1 F1200
G1 X129.204 Y104.149 E.00329
G1 X128.772 Y104.388 E.01702
G1 X128.205 Y104.487 E.01984
G1 X123.195 Y104.487 E.17281
G1 X122.717 Y104.411 E.01667
G1 X122.196 Y104.149 E.02012
G1 X121.795 Y103.725 E.02014
G1 X121.564 Y103.188 E.02015
G1 X121.53 Y102.995 E.00678
G1 X121.564 Y102.412 E.02015
G1 X121.795 Y101.875 E.02014
G1 X122.141 Y101.487 E.01794
G1 X122.533 Y101.256 E.01571
G1 X123.096 Y101.122 E.01994
G1 X128.205 Y101.113 E.17623
G1 X128.683 Y101.189 E.01667
G1 X129.204 Y101.451 E.02012
G1 X129.605 Y101.875 E.02015
G1 X129.836 Y102.412 E.02014
G1 X129.87 Y102.995 E.02015
G1 X129.836 Y103.188 E.00678
G1 X129.605 Y103.725 E.02014
G1 X129.311 Y104.036 E.01479
G1 X129.489 Y104.395 F9000
G1 F1200
G1 X129.393 Y104.476 E.00436
G1 X128.897 Y104.743 E.01941
G1 X128.37 Y104.85 E.01855
G1 X128.205 Y104.864 E.00571
G1 X123.195 Y104.864 E.17281
G1 X122.651 Y104.782 E.01895
G1 X122.345 Y104.671 E.01125
G1 X122.007 Y104.476 E.01344
G1 X121.757 Y104.265 E.01129
G1 X121.506 Y103.967 E.01344
G1 X121.343 Y103.683 E.01129
G1 X121.167 Y103.158 E.01912
G1 X121.152 Y102.605 E.01906
G1 X121.209 Y102.283 E.01129
G1 X121.343 Y101.917 E.01344
G1 X121.506 Y101.633 E.01129
G1 X121.916 Y101.184 E.02095
G1 X122.345 Y100.929 E.01722
G1 X122.651 Y100.818 E.01125
G1 X123.195 Y100.736 E.01895
G1 X128.205 Y100.736 E.17282
G1 X128.749 Y100.818 E.01894
G1 X129.055 Y100.929 E.01125
G1 X129.615 Y101.302 E.02319
G1 X129.894 Y101.633 E.01493
G1 X130.057 Y101.917 E.01129
G1 X130.191 Y102.283 E.01344
G1 X130.248 Y102.605 E.01129
G1 X130.233 Y103.158 E.01906
G1 X130.057 Y103.683 E.01912
G1 X129.894 Y103.967 E.01129
G1 X129.643 Y104.265 E.01344
G1 X129.535 Y104.356 E.00486
G1 E-3.5 F3600
;WIPE_START
G1 F7200
G1 X129.393 Y104.476 E-.08851
G1 X128.897 Y104.743 E-.26737
G1 X128.37 Y104.85 E-.25543
G1 X128.205 Y104.864 E-.07859
G1 X126.658 Y104.864 E-.73511
;WIPE_END
G1 E-.075 F3600
G1 X113.092 Y98.433 F9000
G1 E5 F2400
;WIDTH:0.605174
G1 F1200
G1 X113.495 Y98.415 E.02072
;WIDTH:0.569932
G1 X117.505 Y98.416 E.19332
;WIDTH:0.596828
G1 X117.851 Y98.429 E.01754
G1 E-3.5 F3600
;WIPE_START
G1 F7200
G1 X117.505 Y98.416 E-.16449
G1 X114.852 Y98.415 E-1.26051
;WIPE_END
G1 E-.075 F3600
G1 X109.407 Y111.24 F9000
G1 E5 F2400
;WIDTH:0.419999
G1 F1200
G1 X100.745 Y111.24 E.29876
G1 X100.406 Y111.268 E.01171
G1 X100.024 Y111.361 E.01358
G1 X99.664 Y111.52 E.01358
G1 X99.336 Y111.738 E.01358
G1 X99.052 Y112.011 E.01358
G1 X98.819 Y112.328 E.01358
G1 X98.645 Y112.681 E.01358
;WIDTH:0.465191
G1 X98.59 Y112.798 E.00498
;WIDTH:0.510383
G1 X98.536 Y112.915 E.00551
;WIDTH:0.555575
G1 X98.482 Y113.032 E.00604
;WIDTH:0.600766
G1 X98.427 Y113.149 E.00657
G1 X98.405 Y113.046 E.00536
;WIDTH:0.555575
G1 X98.382 Y112.943 E.00493
;WIDTH:0.510383
G1 X98.36 Y112.841 E.00449
;WIDTH:0.465191
G1 X98.337 Y112.738 E.00406
;WIDTH:0.419999
G1 X98.337 Y98.357 E.496
G1 X98.355 Y98.337 E.00092
G1 X112.614 Y98.34 E.49178
;WIDTH:0.466293
G1 X112.733 Y98.363 E.00472
;WIDTH:0.512587
G1 X112.853 Y98.386 E.00523
;WIDTH:0.558881
G1 X112.973 Y98.409 E.00575
;WIDTH:0.605174
G1 X113.092 Y98.433 E.00626
G1 X113.039 Y98.458 E.00304
;WIDTH:0.57797
G1 X112.883 Y98.536 E.00855
;WIDTH:0.538478
G1 X112.726 Y98.614 E.00792
;WIDTH:0.498985
G1 X112.57 Y98.692 E.00728
;WIDTH:0.459492
G1 X112.414 Y98.77 E.00665
;WIDTH:0.419999
G1 X112.086 Y98.988 E.01358
G1 X111.802 Y99.261 E.01358
G1 X111.569 Y99.578 E.01358
G1 X111.395 Y99.931 E.01358
G1 X111.285 Y100.309 E.01358
G1 X111.24 Y100.745 E.0151
G1 X111.24 Y111.24 E.36198
G1 X109.467 Y111.24 E.06115
G1 X109.36 Y110.863 F9000
G1 F1200
G1 X100.745 Y110.863 E.29714
G1 X100.374 Y110.892 E.01284
G1 X99.926 Y110.997 E.01584
G1 X99.504 Y111.178 E.01584
G1 X99.12 Y111.43 E.01584
G1 X98.714 Y111.829 E.01963
G1 X98.714 Y98.714 E.45231
G1 X111.825 Y98.717 E.4522
G1 X111.535 Y98.994 E.01384
G1 X111.26 Y99.362 E.01584
G1 X111.053 Y99.772 E.01584
G1 X110.92 Y100.212 E.01584
G1 X110.863 Y100.745 E.01849
G1 X110.863 Y110.863 E.34898
G1 X109.42 Y110.863 E.04976
G1 E-3.5 F3600
;WIPE_START
G1 F7200
G1 X106.42 Y110.863 E-1.425
;WIPE_END
G1 E-.075 F3600
G1 X101.651 Y103.425 F9000
G1 E5 F2400
;TYPE:External perimeter
G1 F1200
G1 X101.507 Y102.995 E.01567
G1 X101.518 Y102.541 E.01567
G1 X101.684 Y102.118 E.01567
G1 X101.985 Y101.777 E.01567
G1 X102.383 Y101.56 E.01566
G1 X102.795 Y101.49 E.01439
G1 X107.805 Y101.49 E.17282
G1 X108.278 Y101.582 E.01661
G1 X108.616 Y101.777 E.01345
G1 X108.949 Y102.175 E.01787
G1 X109.093 Y102.605 E.01567
G1 X109.082 Y103.059 E.01567
G1 X108.916 Y103.482 E.01567
G1 X108.615 Y103.823 E.01567
G1 X108.217 Y104.04 E.01566
G1 X107.805 Y104.11 E.01439
G1 X102.795 Y104.11 E.17281
G1 X102.322 Y104.018 E.01661
G1 X101.934 Y103.781 E.01567
