; generated by PrusaSlicer 2.5.0+win64 on 2022-10-09 at 15:12:48 UTC

; 

; external perimeters extrusion width = 0.45mm
; perimeters extrusion width = 0.45mm
; infill extrusion width = 0.45mm
; solid infill extrusion width = 0.45mm
; top infill extrusion width = 0.40mm
; first layer extrusion width = 0.42mm

M107
;TYPE:Custom
G90 ; use absolute coordinates
M83 ; extruder relative mode
M140 S60 ; set final bed temp
M104 S150 ; set temporary nozzle temp to prevent oozing during homing
G4 S10 ; allow partial nozzle warmup
G28 ; home all axis
G1 Z50 F240
G1 X2 Y10 F3000
M104 S220 ; set final nozzle temp
M190 S60 ; wait for bed temp to stabilize
M109 S220 ; wait for nozzle temp to stabilize
G1 Z0.28 F240
G92 E0
G1 Y140 E10 F1500 ; prime the nozzle
G1 X2.3 F5000
G92 E0
G1 Y10 E10 F1200 ; prime the nozzle
G92 E0
G21 ; set units to millimeters
G90 ; use absolute coordinates
M83 ; use relative distances for extrusion
; Filament gcode
M107
;LAYER_CHANGE
;Z:0.2
;HEIGHT:0.2
;BEFORE_LAYER_CHANGE
G92 E0
;0.2


G1 E-5 F3600
G1 Z.2 F9000
;AFTER_LAYER_CHANGE
;0.2
G1 X72.541 Y90.548
G1 E5 F2400
M204 S500
;TYPE:Skirt/Brim
;WIDTH:0.42
G1 F1200
G1 X73.563 Y89.77 E.04431
G1 X74.073 Y89.475 E.0203
G1 X75.258 Y88.979 E.04431
G1 X76.511 Y88.697 E.04431
G1 X77.491 Y88.624 E.03388
G1 X153.794 Y88.636 E2.63169
G1 X154.489 Y88.697 E.02405
G1 X155.742 Y88.979 E.04431
G1 X156.902 Y89.463 E.04335
G1 X157.437 Y89.77 E.02126
G1 X158.459 Y90.548 E.04431
G1 X159.331 Y91.492 E.04431
G1 X160.025 Y92.573 E.04431
G1 X160.319 Y93.205 E.02405
G1 X160.769 Y94.745 E.05535
G1 X163.812 Y112.826 E.63237
G1 X163.877 Y113.621 E.02752
G1 X163.877 Y139 E.8753
G1 X163.483 Y140.583 E.05627
G1 X162.393 Y141.797 E.05627
G1 X160.5 Y142.377 E.06828
G1 X70.5 Y142.377 E3.10408
G1 X68.917 Y141.983 E.05627
G1 X67.703 Y140.893 E.05627
G1 X67.123 Y139 E.06828
G1 X67.152 Y113.122 E.89253
G1 X70.23 Y94.745 E.64264
G1 X70.479 Y93.758 E.03511
G1 X70.975 Y92.573 E.04431
G1 X71.669 Y91.492 E.04431
G1 X72.5 Y90.592 E.04224
G1 E-3.5 F3600
;WIPE_START
G1 F7200
G1 X73.563 Y89.77 E-.63831
G1 X74.073 Y89.475 E-.27962
G1 X75.058 Y89.063 E-.50707
;WIPE_END
G1 E-.075 F3600
G1 X160.19 Y138.69 F9000
G1 E5 F2400
;TYPE:External perimeter
;WIDTH:0.419999
G1 F1200
G1 X70.81 Y138.69 E3.08269
G1 X70.81 Y113.76 E.85982
G1 X70.871 Y113.254 E.01757
G1 X70.968 Y113.064 E.00739
G1 X71.167 Y112.771 E.0122
G1 X73.303 Y110.633 E.10424
G1 X73.624 Y110.173 E.01934
G1 X73.781 Y109.691 E.0175
G1 X73.81 Y109.383 E.01064
G1 X73.81 Y96.014 E.46112
G1 X73.867 Y95.359 E.02264
G1 X74.034 Y94.738 E.02218
G1 X74.305 Y94.156 E.02216
G1 X74.674 Y93.629 E.0222
G1 X75.129 Y93.174 E.02218
G1 X75.656 Y92.805 E.02218
G1 X76.238 Y92.534 E.02218
G1 X76.859 Y92.367 E.02218
G1 X77.514 Y92.31 E.02264
G1 X153.486 Y92.31 E2.62028
G1 X154.141 Y92.367 E.02264
G1 X154.762 Y92.534 E.02218
G1 X155.344 Y92.805 E.02218
G1 X155.871 Y93.174 E.02218
G1 X156.326 Y93.629 E.02218
G1 X156.695 Y94.156 E.02218
G1 X156.966 Y94.738 E.02218
G1 X157.133 Y95.359 E.02218
G1 X157.19 Y96.014 E.02264
G1 X157.19 Y109.383 E.46112
G1 X157.29 Y109.965 E.02036
G1 X157.52 Y110.418 E.0175
G1 X157.717 Y110.655 E.01064
G1 X159.744 Y112.683 E.09888
G1 X160.059 Y113.085 E.01763
G1 X160.131 Y113.306 E.00802
G1 X160.19 Y113.682 E.01311
G1 X160.19 Y138.63 E.86046
G1 X159.843 Y138.49 F9000
G1 X159.813 Y138.313
;TYPE:Perimeter
G1 F1200
G1 X71.187 Y138.313 E3.05668
G1 X71.187 Y113.76 E.84681
G1 X71.234 Y113.372 E.01348
G1 X71.444 Y113.027 E.01392
G1 X73.608 Y110.854 E.10577
G1 X73.983 Y110.29 E.02337
G1 X74.14 Y109.807 E.0175
G1 X74.187 Y109.383 E.01471
G1 X74.187 Y96.03 E.46056
G1 X74.24 Y95.425 E.02094
G1 X74.389 Y94.868 E.0199
G1 X74.633 Y94.345 E.01988
G1 X74.964 Y93.872 E.01992
G1 X75.372 Y93.464 E.0199
G1 X75.845 Y93.133 E.0199
G1 X76.368 Y92.889 E.0199
G1 X76.925 Y92.74 E.0199
G1 X77.53 Y92.687 E.02094
G1 X153.47 Y92.687 E2.61915
G1 X154.075 Y92.74 E.02094
G1 X154.632 Y92.889 E.0199
G1 X155.155 Y93.133 E.0199
G1 X155.628 Y93.464 E.0199
G1 X156.036 Y93.872 E.0199
G1 X156.367 Y94.345 E.0199
G1 X156.611 Y94.868 E.0199
G1 X156.76 Y95.425 E.0199
G1 X156.813 Y96.03 E.02094
G1 X156.813 Y109.383 E.46056
G1 X156.954 Y110.137 E.02643
G1 X157.184 Y110.589 E.0175
G1 X157.45 Y110.922 E.0147
G1 X159.238 Y112.71 E.08721
G1 X159.629 Y113.134 E.01988
G1 X159.766 Y113.404 E.01046
G1 X159.813 Y113.682 E.00971
G1 X159.813 Y138.253 E.84746
G1 E-3.5 F3600
;WIPE_START
G1 F7200
G1 X156.813 Y138.255 E-1.425
;WIPE_END
G1 E-.075 F3600
G1 X127.546 Y101.517 F9000
G1 E5 F2400
;TYPE:External perimeter
G1 F1200
G1 X127.691 Y100.916 E.02132
G1 X127.74 Y100.288 E.02174
G1 X127.74 Y95.293 E.17228
G1 X127.768 Y95.041 E.00875
G1 X127.934 Y94.618 E.01567
G1 X128.235 Y94.277 E.01567
G1 X128.633 Y94.06 E.01566
G1 X129.044 Y93.99 E.01436
G1 X143.956 Y93.99 E.51431
G1 X144.382 Y94.065 E.01494
G1 X144.743 Y94.259 E.01412
G1 X145.026 Y94.555 E.01412
G1 X145.203 Y94.924 E.01411
G1 X145.26 Y95.295 E.01297
G1 X145.26 Y100.286 E.17215
G1 X145.321 Y100.984 E.02415
G1 X145.499 Y101.647 E.02368
G1 X145.789 Y102.269 E.02368
G1 X146.183 Y102.832 E.02368
G1 X146.668 Y103.317 E.02368
G1 X147.231 Y103.711 E.02368
G1 X147.853 Y104.001 E.02368
G1 X148.516 Y104.179 E.02368
G1 X149.214 Y104.24 E.02415
G1 X154.207 Y104.24 E.17223
G1 X154.459 Y104.268 E.00875
G1 X154.882 Y104.434 E.01567
G1 X155.223 Y104.735 E.01566
G1 X155.44 Y105.133 E.01566
G1 X155.51 Y105.544 E.01436
G1 X155.51 Y120.456 E.51432
G1 X155.435 Y120.882 E.01493
G1 X155.241 Y121.243 E.01412
G1 X154.945 Y121.526 E.01412
G1 X154.576 Y121.703 E.01411
G1 X154.205 Y121.76 E.01296
G1 X149.214 Y121.76 E.17215
G1 X148.516 Y121.821 E.02415
G1 X147.853 Y121.999 E.02368
G1 X147.335 Y122.24 E.01971
G1 X146.762 Y122.617 E.02363
G1 X146.288 Y123.063 E.02248
G1 X145.855 Y123.636 E.02477
G1 X145.561 Y124.218 E.02248
G1 X145.351 Y124.905 E.02477
G1 X145.274 Y125.552 E.02248
G1 X145.26 Y126.06 E.01752
G1 X145.26 Y130.705 E.16022
G1 X145.232 Y130.959 E.00881
G1 X145.066 Y131.382 E.01567
G1 X144.765 Y131.723 E.01567
G1 X144.367 Y131.94 E.01566
G1 X143.956 Y132.01 E.01436
G1 X129.044 Y132.01 E.51432
G1 X128.618 Y131.935 E.01493
G1 X128.258 Y131.741 E.0141
G1 X127.983 Y131.456 E.01366
G1 X127.797 Y131.076 E.01457
G1 X127.74 Y130.705 E.01297
G1 X127.74 Y125.714 E.17215
G1 X127.679 Y125.016 E.02415
G1 X127.501 Y124.353 E.02368
G1 X127.211 Y123.731 E.02368
G1 X126.817 Y123.168 E.02368
G1 X126.332 Y122.683 E.02368
G1 X125.769 Y122.289 E.02368
G1 X125.147 Y121.999 E.02368
G1 X124.484 Y121.821 E.02368
G1 X123.786 Y121.76 E.02415
G1 X118.795 Y121.76 E.17216
G1 X118.541 Y121.732 E.00881
G1 X118.118 Y121.566 E.01567
G1 X117.777 Y121.265 E.01567
G1 X117.56 Y120.867 E.01566
G1 X117.49 Y120.456 E.01438
G1 X117.49 Y105.544 E.5143
G1 X117.565 Y105.118 E.01493
G1 X117.759 Y104.757 E.01412
G1 X118.055 Y104.474 E.01412
G1 X118.424 Y104.297 E.01411
G1 X118.795 Y104.24 E.01297
G1 X123.788 Y104.24 E.17219
G1 X124.416 Y104.191 E.02174
G1 X125.017 Y104.046 E.02132
G1 X125.588 Y103.81 E.02132
G1 X126.115 Y103.487 E.02132
G1 X126.585 Y103.085 E.02132
G1 X126.987 Y102.615 E.02132
G1 X127.31 Y102.088 E.02132
G1 X127.523 Y101.573 E.01925
G1 X127.279 Y101.22 F9000
G1 X127.187 Y101.4
;TYPE:Perimeter
G1 F1200
G1 X127.317 Y100.857 E.01927
G1 X127.363 Y100.273 E.0202
G1 X127.363 Y95.289 E.17191
G1 X127.414 Y94.912 E.01312
G1 X127.645 Y94.375 E.02014
G1 X128.046 Y93.951 E.02014
G1 X128.567 Y93.689 E.02012
G1 X129.044 Y93.613 E.01664
G1 X143.956 Y93.613 E.51431
G1 X144.386 Y93.674 E.01499
G1 X144.866 Y93.888 E.01814
G1 X145.258 Y94.241 E.01817
G1 X145.521 Y94.697 E.01815
G1 X145.637 Y95.295 E.02103
G1 X145.637 Y100.27 E.17158
G1 X145.694 Y100.918 E.02244
G1 X145.854 Y101.518 E.0214
G1 X146.117 Y102.08 E.0214
G1 X146.473 Y102.589 E.0214
G1 X146.911 Y103.027 E.0214
G1 X147.42 Y103.383 E.0214
G1 X147.982 Y103.646 E.0214
G1 X148.582 Y103.806 E.0214
G1 X149.23 Y103.863 E.02244
G1 X154.205 Y103.863 E.1716
G1 X154.588 Y103.914 E.01332
G1 X155.125 Y104.145 E.02014
G1 X155.549 Y104.546 E.02014
G1 X155.811 Y105.067 E.02013
G1 X155.887 Y105.544 E.01664
G1 X155.887 Y120.456 E.51432
G1 X155.824 Y120.894 E.01528
G1 X155.612 Y121.366 E.01785
G1 X155.259 Y121.758 E.01816
G1 X154.803 Y122.021 E.01816
G1 X154.205 Y122.137 E.02103
G1 X149.23 Y122.137 E.17158
G1 X148.582 Y122.194 E.02244
G1 X147.982 Y122.354 E.0214
G1 X147.494 Y122.582 E.01857
G1 X146.979 Y122.926 E.02137
G1 X146.554 Y123.33 E.02022
G1 X146.164 Y123.853 E.02251
G1 X145.903 Y124.378 E.02022
G1 X145.715 Y125.002 E.0225
G1 X145.65 Y125.585 E.02022
G1 X145.637 Y130.705 E.1766
G1 X145.586 Y131.088 E.01332
G1 X145.393 Y131.573 E.018
G1 X145.037 Y131.991 E.01893
G1 X144.529 Y132.285 E.02026
G1 X143.956 Y132.387 E.02006
G1 X129.044 Y132.387 E.51432
G1 X128.614 Y132.326 E.01498
G1 X128.134 Y132.112 E.01813
G1 X127.751 Y131.77 E.01769
G1 X127.481 Y131.307 E.01847
G1 X127.363 Y130.705 E.02118
G1 X127.363 Y125.73 E.17158
G1 X127.306 Y125.082 E.02244
G1 X127.146 Y124.482 E.0214
G1 X126.883 Y123.92 E.0214
G1 X126.527 Y123.411 E.0214
G1 X126.089 Y122.973 E.0214
G1 X125.58 Y122.617 E.0214
G1 X125.018 Y122.354 E.0214
G1 X124.418 Y122.194 E.0214
G1 X123.77 Y122.137 E.02244
G1 X118.795 Y122.137 E.1716
G1 X118.412 Y122.086 E.01332
G1 X117.925 Y121.892 E.01808
G1 X117.531 Y121.561 E.01775
G1 X117.256 Y121.117 E.01801
G1 X117.175 Y120.856 E.0094
G1 X117.113 Y120.456 E.01398
G1 X117.113 Y105.544 E.5143
G1 X117.199 Y105.015 E.01847
G1 X117.452 Y104.536 E.0187
G1 X117.816 Y104.179 E.01757
G1 X118.274 Y103.947 E.01773
G1 X118.795 Y103.863 E.0182
G1 X123.773 Y103.863 E.17168
G1 X124.357 Y103.817 E.0202
G1 X124.9 Y103.687 E.01927
G1 X125.417 Y103.473 E.01927
G1 X125.893 Y103.181 E.01927
G1 X126.318 Y102.818 E.01927
G1 X126.681 Y102.393 E.01927
G1 X126.973 Y101.917 E.01927
G1 X127.164 Y101.456 E.0172
G1 E-3.5 F3600
;WIPE_START
G1 F7200
G1 X127.317 Y100.857 E-.2936
G1 X127.363 Y100.273 E-.27826
G1 X127.363 Y98.477 E-.85314
;WIPE_END
G1 E-.075 F3600
G1 X148.001 Y126.223 F9000
G1 E5 F2400
;TYPE:External perimeter
G1 F1200
G1 X147.895 Y125.781 E.01567
G1 X147.945 Y125.33 E.01567
G1 X148.148 Y124.923 E.01567
G1 X148.477 Y124.61 E.01567
G1 X148.893 Y124.428 E.01567
G1 X149.347 Y124.4 E.01567
G1 X149.782 Y124.529 E.01566
G1 X150.123 Y124.77 E.01439
G1 X153.666 Y128.313 E.17281
G1 X153.934 Y128.713 E.01661
G1 X154.042 Y129.138 E.01512
G1 X153.993 Y129.59 E.01567
G1 X153.788 Y130.012 E.01621
G1 X153.459 Y130.325 E.01565
G1 X153.058 Y130.502 E.01513
G1 X152.589 Y130.535 E.01622
G1 X152.153 Y130.407 E.01566
G1 X151.813 Y130.166 E.01439
G1 X148.627 Y126.98 E.15539
G1 X148.145 Y126.474 E.02409
G1 X148.031 Y126.275 E.00792
G1 X147.605 Y126.169 F9000
G1 X147.679 Y126.394
;TYPE:Perimeter
G1 F1200
G1 X147.637 Y126.321 E.00292
G1 X147.517 Y125.798 E.0185
G1 X147.57 Y125.263 E.01853
G1 X147.774 Y124.806 E.01726
G1 X148.157 Y124.381 E.01973
G1 X148.317 Y124.268 E.00678
G1 X148.848 Y124.054 E.01973
G1 X149.298 Y124.017 E.01557
G1 X149.821 Y124.137 E.0185
G1 X150.389 Y124.503 E.02333
G1 X153.932 Y128.046 E.17281
G1 X154.264 Y128.521 E.01998
G1 X154.419 Y129.138 E.02193
G1 X154.379 Y129.609 E.01632
G1 X154.169 Y130.113 E.01883
G1 X154.055 Y130.279 E.00696
G1 X153.661 Y130.645 E.01854
G1 X153.191 Y130.859 E.01782
G1 X152.692 Y130.916 E.0173
G1 X152.491 Y130.9 E.00696
G1 X152.021 Y130.764 E.01688
G1 X151.578 Y130.462 E.01849
G1 X148.36 Y127.246 E.1569
G1 X147.872 Y126.734 E.0244
G1 X147.708 Y126.446 E.01143
G1 X147.306 Y126.458 F9000
G1 F1200
G1 X147.172 Y126.042 E.01508
G1 X147.143 Y125.716 E.01129
G1 X147.206 Y125.166 E.01909
G1 X147.427 Y124.658 E.01909
G1 X147.614 Y124.39 E.01129
G1 X148.016 Y124.009 E.01909
G1 X148.511 Y123.762 E.01909
G1 X148.827 Y123.677 E.01129
G1 X149.298 Y123.64 E.01627
G1 X149.918 Y123.773 E.02188
G1 X150.214 Y123.91 E.01125
G1 X150.656 Y124.237 E.01895
G1 X154.199 Y127.78 E.17281
G1 X154.525 Y128.222 E.01895
G1 X154.663 Y128.517 E.01125
G1 X154.796 Y129.138 E.02188
G1 X154.75 Y129.674 E.01857
G1 X154.513 Y130.269 E.0221
G1 X154.321 Y130.546 E.01159
G1 X153.849 Y130.972 E.02195
G1 X153.291 Y131.223 E.02107
G1 X152.729 Y131.291 E.01955
G1 X152.394 Y131.264 E.01159
G1 X151.861 Y131.106 E.01918
G1 X151.407 Y130.805 E.01878
G1 X151.011 Y130.43 E.01882
G1 X148.094 Y127.513 E.14227
G1 X147.599 Y126.995 E.02471
G1 X147.367 Y126.645 E.01447
G1 X147.325 Y126.515 E.00473
G1 E-3.5 F3600
;WIPE_START
G1 F7200
G1 X147.172 Y126.042 E-.23616
G1 X147.143 Y125.716 E-.15552
G1 X147.206 Y125.166 E-.26292
G1 X147.427 Y124.658 E-.26291
G1 X147.614 Y124.39 E-.15552
G1 X148.016 Y124.009 E-.26292
G1 X148.184 Y123.925 E-.08904
;WIPE_END
G1 E-.075 F3600
G1 X156.342 Y105.362 F9000
G1 E5 F2400
;WIDTH:0.607692
G1 F1200
G1 X156.35 Y105.544 E.00938
;WIDTH:0.59169
G1 X156.35 Y109.383 E.19273
;WIDTH:0.637867
G1 X156.373 Y109.716 E.01815
;WIDTH:0.684044
G1 X156.396 Y110.049 E.01955
;WIDTH:0.686874
G1 X156.398 Y110.066 E.00101
G1 E-3.5 F3600
;WIPE_START
G1 F7200
G1 X156.396 Y110.049 E-.00811
G1 X156.373 Y109.716 E-.15839
G1 X156.35 Y109.383 E-.15839
G1 X156.35 Y107.067 E-1.1001
;WIPE_END
G1 E-.075 F3600
G1 X146.014 Y100.254 F9000
G1 E5 F2400
;WIDTH:0.419999
G1 F1200
G1 X146.002 Y95.147 E.17613
G1 X145.857 Y94.525 E.02201
G1 X145.698 Y94.213 E.0121
G1 X145.524 Y93.974 E.01016
G1 X145.276 Y93.726 E.01211
G1 X145.037 Y93.552 E.01018
;WIDTH:0.467885
G1 X144.923 Y93.479 E.0053
;WIDTH:0.515771
G1 X144.808 Y93.405 E.00589
;WIDTH:0.563657
G1 X144.694 Y93.331 E.00649
;WIDTH:0.611543
G1 X144.579 Y93.258 E.00709
;WIDTH:0.659428
G1 X144.464 Y93.184 E.00768
G1 X144.532 Y93.163 E.004
;WIDTH:0.618285
G1 X144.6 Y93.143 E.00373
;WIDTH:0.577142
G1 X144.668 Y93.122 E.00347
;WIDTH:0.535999
G1 X144.736 Y93.102 E.0032
;WIDTH:0.494856
G1 X144.804 Y93.081 E.00293
;WIDTH:0.453713
G1 X145.155 Y93.064 E.0132
;WIDTH:0.419999
G1 X153.454 Y93.064 E.28623
G1 X154.009 Y93.113 E.01923
G1 X154.503 Y93.245 E.01763
G1 X154.966 Y93.461 E.01763
G1 X155.385 Y93.754 E.01763
G1 X155.746 Y94.115 E.01763
G1 X156.039 Y94.534 E.01763
G1 X156.255 Y94.997 E.01763
G1 X156.387 Y95.491 E.01763
G1 X156.436 Y96.046 E.01923
G1 X156.436 Y104.207 E.28146
;WIDTH:0.427133
G1 X156.432 Y104.979 E.02712
;WIDTH:0.472273
G1 X156.41 Y105.075 E.00387
;WIDTH:0.517413
G1 X156.387 Y105.171 E.00427
;WIDTH:0.562553
G1 X156.365 Y105.266 E.00468
;WIDTH:0.607692
G1 X156.342 Y105.362 E.00509
G1 X156.274 Y105.195 E.00931
;WIDTH:0.560769
G1 X156.206 Y105.028 E.00853
;WIDTH:0.513846
G1 X156.138 Y104.862 E.00776
;WIDTH:0.466923
G1 X156.071 Y104.695 E.00699
;WIDTH:0.419999
G1 X155.876 Y104.357 E.01344
G1 X155.665 Y104.107 E.01128
G1 X155.367 Y103.856 E.01344
G1 X155.083 Y103.693 E.01129
G1 X154.717 Y103.559 E.01344
G1 X154.205 Y103.486 E.01784
G1 X149.246 Y103.486 E.17103
G1 X148.648 Y103.433 E.02074
G1 X148.112 Y103.29 E.01913
G1 X147.609 Y103.056 E.01913
G1 X147.155 Y102.737 E.01913
G1 X146.763 Y102.345 E.01913
G1 X146.444 Y101.891 E.01913
G1 X146.21 Y101.388 E.01913
G1 X146.067 Y100.852 E.01913
G1 X146.019 Y100.313 E.01867
G1 E-3.5 F3600
;WIPE_START
G1 F7200
G1 X146.01 Y97.313 E-1.425
;WIPE_END
G1 E-.075 F3600
G1 X149.723 Y101.499 F9000
G1 E5 F2400
;TYPE:External perimeter
G1 F1200
G1 X149.281 Y101.605 E.01567
G1 X148.83 Y101.555 E.01567
G1 X148.423 Y101.352 E.01567
G1 X148.11 Y101.023 E.01567
G1 X147.928 Y100.607 E.01567
G1 X147.9 Y100.153 E.01567
G1 X148.029 Y99.718 E.01566
G1 X148.27 Y99.377 E.01439
G1 X151.813 Y95.834 E.17281
G1 X152.012 Y95.675 E.00881
G1 X152.429 Y95.493 E.01567
G1 X152.817 Y95.459 E.01344
G1 X153.145 Y95.528 E.01156
G1 X153.53 Y95.73 E.015
G1 X153.827 Y96.045 E.01493
G1 X154.002 Y96.442 E.01497
G1 X154.035 Y96.911 E.01622
G1 X153.907 Y97.347 E.01566
G1 X153.666 Y97.687 E.01439
G1 X150.123 Y101.23 E.17281
G1 X149.773 Y101.465 E.01454
G1 X149.679 Y101.897 F9000
G1 X149.842 Y101.832
;TYPE:Perimeter
G1 F1200
G1 X149.444 Y101.964 E.01446
G1 X149.248 Y101.981 E.00678
G1 X148.682 Y101.901 E.01973
G1 X148.232 Y101.682 E.01726
G1 X147.872 Y101.334 E.01726
G1 X147.604 Y100.829 E.01973
G1 X147.553 Y100.64 E.00677
G1 X147.536 Y100.056 E.02015
G1 X147.719 Y99.502 E.02012
G1 X148.003 Y99.111 E.01667
G1 X151.546 Y95.568 E.17281
G1 X151.853 Y95.333 E.01332
